X:86
T:Farewell to Ireland
R:Reel
O:Ireland
S:Irish Traditional Music Session Tunes
B:Irish Traditional Music Session Tunes
Z:Transcription, arrangement, chords:Mike Long
M:C|
L:1/8
K:G
"Am"A,3C E3F|"G"GEDB, G,B,DB,|"Am"A,3C E3F|\
"G"GEDF "Am"EA,A,G,|"Am"A,3C E3F|"G"GEDB, D2 g2|
"Em"edeg a2ba|"G"gedB "Am"BAA2:|\
|:"Am"a2ag agef|\
"G"g2ga gede|"Am"a2ab agef|
"G"gedB "Am"BAA2|"Am"agef gage|"G"d3B GABd|\
"Am"(3(cBA) BA "G"(3(B^cd) ef|"Em"gedB "Am"BAA2:|
|:"Am"eABA eABA|"G"d3 B GABd|"Am"eABA eAAa|\
"G"gedB "Am"BAA2|"Am"eABA eABA|"G"d3B GABd|
"Am"((3cBA) BA "G"(3(B^cd) ef|"Em"gedB "Am"BAA2:|\
|:"A"ae^ce aece|\
"G"gdBd gdBd|"A"ae^ce a3f|
"G"gedB "A"BAAe|"A"agef "G"g3e|"G"dedB GABd|\
"Am"(3(cBA) BA "G"(3(B^cd) ef|"Em"gedB "Am"BAA2:|
